X: 15325
T: Give Us An A
R: reel
M: 4/4
K: Gmajor
|:g2 d2 Bc e2|d4 B4|GA B2 ABce|d8|
V:2
|:"G" G2 B2GA "C" c2|"G" dcBA B4|d3 B "D" G2d2|A2G2F2E2|
V:1
g2 d2 Bc e2|d2 B2 G3 B|cBAG AGFA|1 D8:|2 G8||
V:2
"G" G2 B2GA "C" c2|"G" dcBA B4|"C" c2B2 "D" A2G2|1 "D" A8:|2 "G" G8||
V:1
|:EF G2 FG A2|G2 B2 d3 B|cBAG FGAe|d8|
V:2
|:"Em" B4 "D" B2B2|"G" D4D3 B|"C" D2E2 "D" F2G2|A2G2F2E2|
V:1
G2 B2 AB c2|B2 d2 g3 B|cBAG FGAF|1 D8:|2 G8||
V:2
"G" B4B2B2|d4d3 B|"C" E2G2 "D" F2G2|1 "D" A8:|2 "G" G8||

